X: 302
M: C|
L: 1/8
K: D
V: 1
V: 2 clef=bass middle=d
z | d2f2 e2d2 | d2d2 e2A2 | d2f2 e2d2 | A2A2 d2d :|
a | d2d2 d2d2 | e2e2 A2A2 | d2d2 d2d2 | g2a2 d2d2 |
    d2d2 d2d2 | e2d2 A2a2 | g2f2 d2f2 | g2a2 d2d :\


